X:1
T:Little Florrie
T:Little Florrie
T:Little Hennie
T:Robert Whinham (1814-1893)
C:Robert Whinham (1814-1893)
L:1/8
M:4/4
K:G
V:1 treble 
V:1
 (3def | (3gba (3gfe dcBA | cBAG AGEG | DGBd cBAG | B2 A2 A2 (3def | (3gba (3gfe dcBA | cBAG AGEG | %7
 DGBd edcA | G2 G2 G2 :: B,C | DGBA GFED | EGcB AGFE | DGBd cBAG | F>Gd>d d2 (3def | %14
 (3gba (3gfe dcBA | cBAG AGEG | DGBd edcA | G2 G2 G2 :: (3def | gfgb afdf | eceg dBGB | cgec BgdB | %22
 AGAB A2 BA | GdBG FGAB | cBcd ecAF | GdBG FAdf | g2 g2 g2 :| %27

